X: 494
T: Fritz Hambopolska
O: Okänt
Z: Håkan Lidén, 2008-09-27
R: Hambopolska
M: 3/4
L: 1/8
K: Eb
G | "Eb" B2 Bc BA | GE G3 F | "Ab" E2 EF ED | CA, C4 | "Bb" d2 de dc | cB d3 c | 
"Bb" Bc BA FD | "Eb" EG Bc B2 | B2 Bc BA | GE G3 F | "Ab" E2 EF ED | CA, C4 | 
"Bb" d2 de dc | cB d3 c | Bc BA FD | "Eb" E2 E3 :: B | "Eb" g2 g3 B | "Bb" f2 f3 B | 
"Ab/C".e2 "/Bb".d2 "/Ab".c2 | "Eb/G" B2 B3 G | Bc BA GA | c2 B3 G | "Bb" FG AB, DF | "Eb" F/G/F/D/ E3 :|]
(:musicend:)

[[!Kategori:Ovanligt taktartsval]] och [[!lite information]].

(:music:)
